X: 232
T:Piper and the Pony, The
M:6/8
L:1/8
C:Peter O'Hanlon
R:jig
D:Lia Luachra: Traffic
Z:Devin McCabe
K:DDor
d3 ecd-|dcA GFD|GAF Gde|fed efg|
!fed ecd-|dcA GFD|GAF GAF|1DA,C DFA:|2DA,C D2E|
!:DGG GFG|AFD D2C|DGG GFG|Ad^c =cBA|
!GAG GFG|AFD AFD|EDC EAG|1EDC D2C:|2(3EF^F G ABc||
!d2d- dfe|dcA FGA|GAG GFG|AFD ~D3|
!Add dfe|dcA d3|dcA FGA|GFD DAc|
!d2d- dfe|dcA FGA|GAG GFG|AFD ~D3|
!Add dfe|dcA f3|dcA FGA|
!GAG GFG|AFD AFD|M: 3/8 D3||
